X: 1
T: John Brennan's
M: 4/4
L: 1/8
R: reel
K: Dmaj
D2 FA D2 cd|BAGB ADFA|BAGB ADFA|BAGF EGFE|
D2 FA D2 cd|BAGB ADFA|BAGB ABdf|afeg fdde:||
f2 df efde|fedB ADFA|BAGB ADFA|BAGB EGFE|
f2 df efde|fedB ADFA|BAGB ABdf|afeg fd e2:||
